assets/svg/go-cleaning-man-2.svg

<svg width="56" height="83" viewBox="0 0 56 83" fill="none" xmlns="http://www.w3.org/2000/svg">
<path d="M32.1026 18.3136C27.0398 18.3136 22.9351 14.2149 22.9351 9.15757C22.9351 4.10029 27.0398 0 32.1026 0C37.1654 0 41.2699 4.10029 41.2699 9.15757C41.2699 14.2149 37.1654 18.3136 32.1026 18.3136Z" fill="#32B8E9"/>
<path d="M0.0170288 76.0396C0.279926 74.0848 2.10662 71.6497 6.15434 72.2277C10.2829 72.8176 13.193 72.9631 14.7771 72.1336V52.6506C13.109 51.6906 12.2806 49.6669 12.9003 47.7655L14.7771 42.0013V9.15623C14.7771 8.00831 15.7095 7.07695 16.8586 7.07695C18.0078 7.07695 18.9402 8.00831 18.9402 9.15623V29.2155L19.9673 26.0608C20.9117 23.1641 23.595 21.2174 26.6453 21.2174H37.5595C40.6087 21.2174 43.2918 23.1639 44.2362 26.0622L51.3046 47.7655C51.5343 48.4704 51.5469 49.1879 51.4097 49.8662C54.127 51.3258 56 54.1595 56 57.451C56 57.7421 53.8195 71.6754 53.8195 71.6754C53.5865 73.0655 52.3832 74.0849 50.9711 74.0849H43.721C42.3089 74.0849 41.1056 73.0655 40.8727 71.6754C40.8727 71.6754 38.6923 57.7421 38.6923 57.451C38.6923 54.176 40.5466 51.3548 43.2417 49.8883L42.3966 47.2945C38.5186 49.0131 35.9169 53.0753 35.9169 57.451C35.9169 57.7228 35.9169 57.9574 38.1355 72.1329C38.5062 74.3459 40.1204 76.0478 42.1899 76.6266V78.793C42.1899 81.116 40.3035 83 37.9782 83C35.6514 83 33.7663 81.117 33.7663 78.793V53.6485H30.438V78.793C30.438 81.117 28.553 83 26.2263 83C23.8993 83 22.0143 81.117 22.0143 78.793V46.6594L20.8165 50.3377C20.4879 51.3473 19.7901 52.1091 18.9397 52.6054V73.8158C19.1565 74.6812 20.6234 81.081 16.8581 82.1041C5.35862 85.2295 9.42529 77.8372 6.03882 78.349C2.22314 78.9257 -0.229603 77.8779 0.0170288 76.0396ZM41.4679 57.451H53.2252C53.2252 55.1732 51.9068 53.2165 50.0047 52.2431C49.6098 52.5714 49.1523 52.8372 48.6339 53.0057C47.226 53.4656 45.7541 53.1234 44.6911 52.2416C42.7875 53.2145 41.4679 55.1722 41.4679 57.451Z" fill="#32B8E9"/>
</svg>

<svg width="56" height="83" fill="none" xmlns="http://www.w3.org/2000/svg"><path d="M32.103 18.314c-5.063 0-9.168-4.1-9.168-9.156C22.935 4.1 27.04 0 32.103 0c5.062 0 9.167 4.1 9.167 9.158 0 5.057-4.105 9.156-9.167 9.156z" fill="#32B8E9"/><path d="M.017 76.04c.263-1.955 2.09-4.39 6.137-3.812 4.129.59 7.039.735 8.623-.094V52.65a4.155 4.155 0 01-1.877-4.886l1.877-5.764V9.156a2.081 2.081 0 014.163 0v20.06l1.027-3.155a7.006 7.006 0 016.678-4.844H37.56a7.004 7.004 0 016.676 4.845l7.069 21.704c.23.704.242 1.422.105 2.1 2.717 1.46 4.59 4.294 4.59 7.585 0 .291-2.18 14.224-2.18 14.224a2.887 2.887 0 01-2.849 2.41h-7.25a2.887 2.887 0 01-2.848-2.41s-2.18-13.933-2.18-14.224c0-3.275 1.854-6.096 4.549-7.563l-.845-2.593c-3.878 1.718-6.48 5.78-6.48 10.156 0 .272 0 .506 2.218 14.682a5.624 5.624 0 004.055 4.494v2.166A4.21 4.21 0 0137.978 83a4.209 4.209 0 01-4.212-4.207V53.648h-3.328v25.145A4.209 4.209 0 0126.226 83a4.209 4.209 0 01-4.212-4.207V46.659l-1.197 3.679c-.33 1.01-1.027 1.771-1.877 2.267v21.21c.216.866 1.683 7.266-2.082 8.29-11.5 3.124-7.433-4.268-10.82-3.756-3.815.577-6.268-.471-6.021-2.31zm41.45-18.589h11.758c0-2.278-1.318-4.234-3.22-5.208a4.144 4.144 0 01-1.371.763 4.147 4.147 0 01-3.943-.764c-1.904.973-3.223 2.93-3.223 5.209z" fill="#32B8E9"/></svg>
